icons/square-arrow-up-outline.svg

<svg xmlns="http://www.w3.org/2000/svg" width="24" height="24" viewBox="0 0 24 24">
  <path d="M19,2 C20.6568542,2 22,3.34314575 22,5 L22,5 L22,19 C22,20.6568542 20.6568542,22 19,22 L19,22 L5,22 C3.34314575,22 2,20.6568542 2,19 L2,19 L2,5 C2,3.34314575 3.34314575,2 5,2 L5,2 Z M19,4 L5,4 C4.44771525,4 4,4.44771525 4,5 L4,5 L4,19 C4,19.5522847 4.44771525,20 5,20 L5,20 L19,20 C19.5522847,20 20,19.5522847 20,19 L20,19 L20,5 C20,4.44771525 19.5522847,4 19,4 L19,4 Z M11.375,6.219 L11.367,6.225 L11.374551,6.21968877 L11.376,6.218 L11.4182204,6.1864634 L11.4182204,6.1864634 C11.4377852,6.17252629 11.4583066,6.15891923 11.4793398,6.14606743 C11.4928304,6.13772719 11.5064305,6.12986112 11.5201698,6.12234168 C11.5371537,6.1131069 11.5549095,6.1040443 11.5729619,6.09550623 C11.5932325,6.08591191 11.613165,6.07731015 11.6333026,6.06938695 C11.6508514,6.06244532 11.6689468,6.0559003 11.6872762,6.04987089 C11.7025958,6.04489522 11.7182588,6.04017413 11.734007,6.03584514 C11.7555635,6.02983363 11.7772539,6.0246398 11.7992059,6.02016515 C11.8166247,6.01670217 11.834051,6.01362808 11.8515331,6.0110178 C11.8705796,6.00810098 11.8903051,6.00574796 11.9101982,6.00397748 L11.9409686,6.0017331 L11.9409686,6.0017331 L11.9806591,6.0001833 L12,6 L12,6 L12.0181458,6.001 L12.029,6.001 L12.081,6.003 L12.1489612,6.01101934 L12.1489612,6.01101934 C12.1661068,6.01365592 12.1834538,6.01671819 12.2007258,6.02024007 C12.2227461,6.0246398 12.2444365,6.02983363 12.2658396,6.03572097 C12.2814633,6.04009773 12.2968513,6.04472872 12.3121425,6.04973809 C12.3317977,6.05612249 12.3515792,6.06331574 12.3710585,6.07110396 L12.4232215,6.09367336 L12.4232215,6.09367336 C12.4419547,6.10247102 12.4604898,6.11185933 12.4786822,6.12179647 C12.4935488,6.12981337 12.5087703,6.13863517 12.5238,6.14789148 C12.5456983,6.16150681 12.5664533,6.17541687 12.5866395,6.19006311 C12.5953343,6.19627953 12.6041603,6.2029095 12.6128994,6.20970461 C12.6197272,6.21512226 12.6225945,6.21739784 12.625449,6.21968877 L12.7071068,6.29289322 L16.363961,9.94974747 C16.7544853,10.3402718 16.7544853,10.9734367 16.363961,11.363961 C16.0034771,11.724445 15.436246,11.7521745 15.0439548,11.4471496 L14.9497475,11.363961 L12.9991458,9.414 L13,17 C13,17.5522847 12.5522847,18 12,18 C11.4871642,18 11.0644928,17.6139598 11.0067277,17.1166211 L11,17 L10.9991458,9.414 L9.05025253,11.363961 C8.65972824,11.7544853 8.02656326,11.7544853 7.63603897,11.363961 C7.27555501,11.0034771 7.24782547,10.436246 7.55285036,10.0439548 L7.63603897,9.94974747 L11.2928932,6.29289322 L11.3538862,6.2366872 L11.3538862,6.2366872 L11.367,6.225 L11.355,6.236 L11.375,6.219 Z"/>
</svg>

<svg xmlns="http://www.w3.org/2000/svg" viewBox="0 0 24 24">
  <path d="M19 2a3 3 0 0 1 3 3v14a3 3 0 0 1-3 3H5a3 3 0 0 1-3-3V5a3 3 0 0 1 3-3zm0 2H5a1 1 0 0 0-1 1v14a1 1 0 0 0 1 1h14a1 1 0 0 0 1-1V5a1 1 0 0 0-1-1zm-7.63 2.22.05-.03A1.04 1.04 0 0 1 11.9 6h.17l.07.01a1.09 1.09 0 0 1 .22.06l.05.02a1.02 1.02 0 0 1 .2.13l.09.07 3.65 3.66a1 1 0 0 1-1.32 1.5l-.09-.09L13 9.41V17a1 1 0 0 1-2 .12V9.4l-1.95 1.95a1 1 0 0 1-1.5-1.32l.09-.09 3.65-3.66.06-.05.02-.02-.01.02.02-.02z"/>
</svg>
